X: 15219
T: Ginley's
R: reel
M: 4/4
K: Gmajor
AG|:FGAF BDB,D|GBAc BGGA|B^cdf eB=cA|E2 AG FDB,D|
(3GGG BG AGBG|GABc defg|(3agf ge defd|1 cAFA G2AG:|2 cAFA G2GA||
B2 ef gfed|(3BcB GB ABGA|B2 ef gfga|(3bag (3agf gfed|
B2 ef gfed|eBBA B^cdf|(3efg fa gbaf|1 gedB G2GA:|2 gedB G2AG||

